X: 588
T: Nao wugeng
%%abc-version 2.0
%%abcx-abcm2ps-target-version 5.9.1 (29 Sep 2008)
%%abc-creator hum2abc beta
%%abcx-conversion-date 2013/10/02 07:52:30
%%abc-edited-by Helmut Schaffrath
%%humdrum-veritas 3374036691
%%humdrum-veritas-data 2990713283
%%continueall 1
%%barnumbers 0
L: 1/8
M: 2/4
K: G
AA2B [I:setbarnb 1]| 
d2e d | 
B dA2 | 
dG2B | 
A4 | 
AA2B | 
d2e d | 
B dA2 | 
dG2B | 
A4 | 
G2A2 | 
Ad2B | 
A3G | 
d2B B | 
G3E | 
D4 | 
E2E G | 
A2z2 | 
d c A G | 
E2B A | 
G3A | 
E D B, A, | 
D3E | 
D4 |]  



